X: 1
T: Shove That Pig's Foot a Little Further in the Fire
S: Roaring Jelly collection
M: 4/4
L: 1/8
K: G
GA |\
"G"BdBA G2 E2 | "C"GAGE "D7"D4 | "G"DEG2 "(Em)"B3c | "Am"B2A2- "D7"A2GA |
"G"BdBA G2 E2 | "C"GAGE "D7"D4 | "G"DEG2 "D7"B3G | "G"A2 G4 :|
|: GA |\
"G"Bd-d2 dBdg | "C"edBc "G"d4 | "C"g4 g3d | "D7"e2 d4 dd |
"G"Bd-d2 dBdg | "C"edBc "G"d4 | "G"BABd "D7"BAGB | "G"A2 G4 :|

%%sep 1 1 500

